packages/icons/src/SVG/sum.svg

<svg width="12" height="12" viewBox="0 0 12 12" fill="none" xmlns="http://www.w3.org/2000/svg">
<path fill-rule="evenodd" clip-rule="evenodd" d="M8 6L6 3H9V4.625H12V0H0L4.125 6L0 12H12V7.5H9V9H6L8 6ZM10 8.5V10H4.13148L6.79815 6L4.13148 2H10V3.625H11V1H1.90103L5.33853 6L1.90103 11H11V8.5H10Z" fill="#4C505B"/>
</svg>

<!-- Generated by IcoMoon.io -->
<svg version="1.1" xmlns="http://www.w3.org/2000/svg" width="12" height="12" viewBox="0 0 12 12">
<title>sum</title>
<path d="M8 6l-2 3h3v-1.5h3v4.5h-12l4.125-6-4.125-6h12v4.625h-3v-1.625h-3l2 3zM10 8.5v1.5h-5.869l2.667-4-2.667-4h5.869v1.625h1v-2.625h-9.099l3.437 5-3.437 5h9.099v-2.5h-1z"></path>
</svg>
